X:178
T:B178-  Hail to the myrtle shades
Q:1/4=120
L:1/4
M:3/4
K:Bb
B3/2c/2d|ec2|d2f|B3/2A/2B|c3/2d/2c|A3|B3/2c/2d|fc2|\
d2B|f3/2e/2d|g=e2|f3|c3/2d/2e|d3/2c/2B|e2g|f3/2e/2d|\
c3/2e/2e|d2(d/4e/4f/2)|e3/2d/2c|(f/2e/2)d(c/2B/2)|\
A2f|d3/2c/2d|ec2|c3|]
